X:0492
T:Tambourine.
M:C|
L:1/8
Q:1/2=100 "Moderato"
I: :: ::
Z:Jack Campin * www.campin.me.uk * 2009
K:D
f2e/f/g    f2 e2|dfed          (Tc2 B)A|d2c/d/e d2(e/f/g)|fagf    e4 |
f2e/f/g    f2 e2|dfed            c2TBA |d2c/d/e d2 e/f/g |fdAc    d4::
a2g/a/b    ad'fg|ab/a/ g/f/e/d/ Tc2 BA |d2c/d/e d2 e/f/g |fagf {f}e4 |
f2d/e/f/g/ f2 e2|dfed            c2 BA |d2c/d/e d2 e/f/g |fdAc    d4:|
<end>
<start>
